www/assets/icons/private_connectivity.svg

<svg xmlns="http://www.w3.org/2000/svg" width="24" height="24" viewBox="0 0 24 24" fill='currentColor'><path d="M18.93 11c-.49-3.39-3.4-6-6.93-6s-6.44 2.61-6.93 6H2v2h3.07c.49 3.39 3.4 6 6.93 6s6.44-2.61 6.93-6H22v-2zM15 14.5c0 .55-.45 1-1 1h-4c-.55 0-1-.45-1-1v-3c0-.55.45-1 1-1v-1a2 2 0 0 1 2.34-1.97c.98.16 1.66 1.08 1.66 2.08v.89c.55 0 1 .45 1 1zM12.75 13c0 .41-.34.75-.75.75s-.75-.34-.75-.75.34-.75.75-.75.75.34.75.75M13 9.5v1h-2v-1c0-.55.45-1 1-1s1 .45 1 1"/></svg>

<svg width="24" height="24" viewBox="0 0 24 24" xmlns="http://www.w3.org/2000/svg" fill='currentColor'><path d="M18.93 11C18.44 7.61 15.53 5 12 5C8.47 5 5.56 7.61 5.07 11H2V13H5.07C5.56 16.39 8.47 19 12 19C15.53 19 18.44 16.39 18.93 13H22V11H18.93ZM15 14.5C15 15.05 14.55 15.5 14 15.5H10C9.45 15.5 9 15.05 9 14.5V11.5C9 10.95 9.45 10.5 10 10.5V9.5C10 8.29 11.08 7.32 12.34 7.53C13.32 7.69 14 8.61 14 9.61V10.5C14.55 10.5 15 10.95 15 11.5V14.5ZM12.75 13C12.75 13.41 12.41 13.75 12 13.75C11.59 13.75 11.25 13.41 11.25 13C11.25 12.59 11.59 12.25 12 12.25C12.41 12.25 12.75 12.59 12.75 13ZM13 9.5V10.5H11V9.5C11 8.95 11.45 8.5 12 8.5C12.55 8.5 13 8.95 13 9.5Z"/></svg>
